X: 29376
T: News From Up North
R: mazurka
M: 3/4
K: Eminor
EF|:GEEEFD EAAAEF|GGFGEF DAAAEF|
GEEEFD EAAAEF|1 GGGEFD EGFGEF:|2 GGGEFD E4cd||
|:eAAAGF EAABcd|eAeedc BGGABc|
deeedc BGGDEF|1 GGGEFD EFGAcd:|2 GGGEFD E4ef||
|:geeefd eAAAef|ggfgef dAAAef|
geeefd eAAAef|1 gggefd ef (3gfe (3agf:|2 gggefde4cd||
|:eaaagf eAABcd|eaeedc BGGABc|
deeedc Bggdef|1 gggefd eeedcd:|2 gggefde6||

